svgs/sharp-regular/folder-gear.svg

<svg xmlns="http://www.w3.org/2000/svg" viewBox="0 0 512 512"><!--! Font Awesome Pro 6.6.0 by @fontawesome - https://fontawesome.com License - https://fontawesome.com/license (Commercial License) Copyright 2024 Fonticons, Inc. --><path d="M224 32l48 64 192 0 48 0 0 48 0 288 0 48-48 0L48 480 0 480l0-48L0 80 0 32l48 0 176 0zm48 112l-24 0-14.4-19.2L200 80 48 80l0 352 416 0 0-288-192 0zm12 32l0 32.8c9.8 3.5 18.8 8.7 26.6 15.4L339 207.7l28 48.5-28.4 16.4c.9 5 1.4 10.1 1.4 15.4s-.5 10.4-1.4 15.4L367 319.7l-28 48.5-28.4-16.4c-7.8 6.6-16.8 11.9-26.6 15.4l0 32.8-56 0 0-32.8c-9.8-3.5-18.8-8.7-26.6-15.4L173 368.2l-28-48.5 28.4-16.4c-.9-5-1.4-10.1-1.4-15.4s.5-10.4 1.4-15.4L145 256.2l28-48.5 28.4 16.4c7.8-6.6 16.8-11.9 26.6-15.4l0-32.8 56 0zm7 112a35 35 0 1 0 -70 0 35 35 0 1 0 70 0z"/></svg>

<svg xmlns="http://www.w3.org/2000/svg" viewBox="0 0 512 512"><!--! Font Awesome Pro 6.4.2 by @fontawesome - https://fontawesome.com License - https://fontawesome.com/license (Commercial License) Copyright 2023 Fonticons, Inc. --><path d="M224 32l48 64H464h48v48V432v48H464 48 0V432 80 32H48 224zm48 112H248l-14.4-19.2L200 80H48V432H464V144H272zm12 32v32.8c9.8 3.5 18.8 8.7 26.6 15.4L339 207.7l28 48.5-28.4 16.4c.9 5 1.4 10.1 1.4 15.4s-.5 10.4-1.4 15.4L367 319.7l-28 48.5-28.4-16.4c-7.8 6.6-16.8 11.9-26.6 15.4V400H228V367.2c-9.8-3.5-18.8-8.7-26.6-15.4L173 368.2l-28-48.5 28.4-16.4c-.9-5-1.4-10.1-1.4-15.4s.5-10.4 1.4-15.4L145 256.2l28-48.5 28.4 16.4c7.8-6.6 16.8-11.9 26.6-15.4V176h56zm7 112a35 35 0 1 0 -70 0 35 35 0 1 0 70 0z"/></svg>
